profiles/cube/Aptus-II_5_Flash_1.L_000072.cube
TITLE "Generated by Resolve"
LUT_3D_SIZE 9
0 0 0
0.154635 0 0.00231937
0.29601 0 0.00610361
0.437461 0 0.0119326
0.579004 0 0.0199588
0.720607 0 0.0303197
0.862287 0 0.0430915
1 0 0.0585031
1 0 0.0772106
0.0190127 0.160342 0
0.165316 0.159228 0
0.301274 0.157229 0
0.440253 0.153994 0
0.580362 0.149386 0
0.721019 0.143221 0.0043946
0.861982 0.135271 0.0171969
1 0.125277 0.032517
1 0.112764 0.0504311
0.052781 0.30547 0
0.183795 0.304845 0
0.312078 0.303716 0
0.447272 0.301915 0
0.585184 0.299351 0
0.724422 0.295979 0
0.864378 0.291722 0
1 0.286519 0
1 0.280293 0.00643931
0.10132 0.45069 0
0.210452 0.450263 0
0.329046 0.449516 0
0.458976 0.448295 0
0.593729 0.446586 0
0.730877 0.444312 0
0.869383 0.441474 0
1 0.438025 0
1 0.433936 0
0.153246 0.595987 0
0.243473 0.595666 0
0.35169 0.595117 0
0.475257 0.594217 0
0.605997 0.59295 0
0.740459 0.591272 0
0.877058 0.589181 0
1 0.586633 0
1 0.583642 0
0.20528 0.74136 0
0.281209 0.7411 0
0.379309 0.740658 0
0.495888 0.739956 0
0.621927 0.738964 0
0.753155 0.737652 0
0.887404 0.736019 0
1 0.734035 0
1 0.731685 0
0.25742 0.886793 0
0.322377 0.886564 0
0.411154 0.886213 0
0.5205 0.885649 0
0.641367 0.884825 0
0.768887 0.883772 0
0.900435 0.882445 0
1 0.880812 0
1 0.878889 0
0.309667 1 0
0.366064 1 0
0.446479 1 0
0.548699 1 0
0.664134 1 0
0.787579 1 0
0.91606 1 0
1 1 0
1 1 0
0.362051 1 0
0.411643 1 0
0.484688 1 0
0.580056 1 0
0.689952 1 0
0.80911 1 0
0.934249 1 0
1 1 0
1 1 0
0 0 0.146792
0.133593 0 0.148241
0.28426 0 0.151141
0.429541 0 0.155352
0.573144 0 0.160967
0.71603 0 0.167941
0.858579 0 0.176226
1 0 0.185748
1 0 0.196414
0 0.145708 0.127382
0.145464 0.144518 0.129351
0.289586 0.142367 0.132418
0.432181 0.138888 0.137026
0.574289 0.133913 0.14316
0.716213 0.12723 0.150774
0.858061 0.118578 0.159792
0.999908 0.107561 0.170092
1 0.0936446 0.181552
0.0217136 0.297047 0.0884718
0.165667 0.296422 0.0908217
0.300679 0.295277 0.0946059
0.439185 0.293431 0.100237
0.579004 0.290806 0.107713
0.719448 0.287343 0.116869
0.860243 0.282979 0.127581
1 0.277638 0.139635
1 0.271229 0.152865
0.0731365 0.444892 0.0180056
0.194354 0.444465 0.0202792
0.318196 0.443702 0.0240787
0.451057 0.442481 0.0299382
0.587579 0.440742 0.0380255
0.725887 0.438437 0.0484321
0.865202 0.435569 0.0616007
1 0.432074 0.0780041
1 0.427924 0.0966964
0.132662 0.591608 0
0.229343 0.591287 0
0.341527 0.590723 0
0.467613 0.589822 0
0.59997 0.58854 0
0.735515 0.586862 0
0.872892 0.584741 0
1 0.582193 0
1 0.579156 0
0.189075 0.73785 0
0.268803 0.737606 0
0.369863 0.737148 0
0.488563 0.736461 0
0.616053 0.735454 0
0.748287 0.734142 0
0.883284 0.732494 0
1 0.730495 0
1 0.72813 0
0.244083 0.883879 0
0.311437 0.883665 0
0.402411 0.883299 0
0.513527 0.882734 0
0.635691 0.881926 0
0.764126 0.880858 0
0.896361 0.879515 0
1 0.877897 0
1 0.875959 0
0.298375 1 0
0.356344 1 0
0.438407 1 0
0.542077 1 0
0.658625 1 0
0.78294 1 0
0.912062 1 0
1 1 0
1 1 0
0.35227 1 0
0.402945 1 0
0.477226 1 0
0.5738 1 0
0.684672 1 0
0.804578 1 0
0.930343 1 0
1 1 0
1 1 0
0 0 0.285039
0.092607 0 0.285512
0.264057 0 0.287587
0.416342 0 0.290242
0.563546 0 0.293736
0.708614 0 0.2981
0.852613 0 0.303349
0.996048 0 0.309483
1 0 0.316487
0 0.11902 0.274311
0.107942 0.117662 0.275563
0.269642 0.115175 0.277378
0.418845 0.111131 0.280064
0.564446 0.105318 0.28365
0.708522 0.0974136 0.288167
0.851865 0.0870069 0.293599
0.994781 0.0734569 0.299947
1 0.0576944 0.307179
0 0.28278 0.255116
0.132387 0.28217 0.256367
0.281331 0.28098 0.258259
0.425864 0.279042 0.261082
0.568994 0.276295 0.264881
0.711513 0.272679 0.269673
0.853742 0.268101 0.275471
0.995789 0.262486 0.282231
1 0.255756 0.289937
0.0236973 0.435187 0.221561
0.165515 0.434791 0.222873
0.299794 0.434028 0.224964
0.437949 0.432776 0.228107
0.577569 0.431022 0.232349
0.717861 0.428687 0.237705
0.858564 0.425757 0.24416
0.999496 0.422187 0.251652
1 0.41796 0.260182
0.0932021 0.584283 0.165698
0.20441 0.583978 0.167239
0.324193 0.583413 0.169802
0.454795 0.582513 0.173678
0.58996 0.581216 0.178912
0.727382 0.579538 0.185489
0.866072 0.577401 0.193332
1 0.574838 0.202411
1 0.571771 0.212604
0.159762 0.731975 0.0584726
0.247166 0.731731 0.0609598
0.353704 0.731273 0.0649577
0.476158 0.730587 0.0712139
0.606149 0.72958 0.0798657
0.740108 0.728252 0.0910048
0.876356 0.726619 0.103517
1 0.724605 0.117357
1 0.722225 0.132296
0.220691 0.878996 0
0.292576 0.878798 0
0.387533 0.878431 0
0.501732 0.877867 0
0.626093 0.877058 0
0.756115 0.875975 0
0.889494 0.874632 0
1 0.873014 0
1 0.871077 0
0.278889 1 0
0.339742 1 0
0.424735 1 0
0.530907 1 0
0.649393 1 0
0.775113 1 0
0.905333 1 0
1 1 0
1 1 0
0.335546 1 0
0.388174 1 0
0.464637 1 0
0.563241 1 0
0.675776 1 0
0.796994 1 0
0.923751 1 0
1 1 0
1 1 0
0 0 0.423117
0.0149081 0 0.424002
0.229618 0 0.42475
0.395071 0 0.426825
0.548363 0 0.429374
0.697002 0 0.432517
0.843351 0 0.436286
0.988418 0 0.440696
1 0 0.445762
0 0.0678264 0.415915
0.0334478 0.0660868 0.416892
0.236149 0.0629892 0.418311
0.39765 0.0580301 0.420249
0.549203 0.0510872 0.422782
0.696834 0.0420996 0.42594
0.842542 0.0309606 0.429755
0.987152 0.0175937 0.434241
1 0.0019379 0.439384
0 0.259403 0.403693
0.0658274 0.258747 0.404639
0.249027 0.257496 0.406012
0.404623 0.255406 0.40795
0.553338 0.25243 0.410559
0.699245 0.248508 0.413825
0.843732 0.243519 0.417792
0.987396 0.2374 0.422446
1 0.230045 0.427802
0 0.419898 0.382864
0.112139 0.419532 0.38381
0.269551 0.418753 0.385199
0.417258 0.417472 0.387213
0.562036 0.415641 0.389914
0.705562 0.41323 0.393347
0.848447 0.410193 0.397498
0.990967 0.4065 0.402396
1 0.402106 0.408011
0.0184329 0.572961 0.351568
0.161059 0.572702 0.352499
0.296269 0.572137 0.353933
0.434867 0.571237 0.3561
0.574716 0.569924 0.358999
0.715175 0.5682 0.362692
0.85597 0.566033 0.367163
0.996979 0.563409 0.372427
1 0.560296 0.378485
0.10576 0.723003 0.306157
0.210971 0.722774 0.307103
0.328008 0.722332 0.30869
0.457023 0.721645 0.311101
0.591196 0.720638 0.314366
0.727977 0.71931 0.318517
0.866224 0.717647 0.323552
1 0.715618 0.329458
1 0.713222 0.336248
0.180438 0.871489 0.238834
0.261509 0.87129 0.239948
0.36376 0.870939 0.241871
0.483238 0.870359 0.244816
0.611276 0.869566 0.248814
0.743893 0.868498 0.253895
0.879164 0.867155 0.260014
1 0.865522 0.267185
1 0.863584 0.275349
0.246235 1 0.124392
0.31252 1 0.126146
0.402686 1 0.129198
0.513115 1 0.133883
0.63476 1 0.140169
0.762844 1 0.148028
0.894804 1 0.157351
1 1 0.167987
1 1 0.179797
0.30808 1 0
0.364172 1 0
0.444419 1 0
0.54641 1 0
0.661662 1 0
0.78497 1 0
0.913314 1 0
1 1 0
1 1 0
0 0 0.560983
0 0 0.561715
0.172564 0 0.5617
0.363622 0 0.563867
0.526665 0 0.565942
0.680644 0 0.568429
0.830411 0 0.571359
0.977859 0 0.574792
1 0 0.578714
0 0 0.555428
0 0 0.556359
0.181979 0 0.557687
0.366812 0 0.559274
0.527749 0 0.561273
0.680613 0 0.563729
0.829679 0 0.566674
0.976638 0 0.570123
1 0 0.57406
0 0.223804 0.547204
0 0.223041 0.547997
0.197513 0.221668 0.549203
0.373541 0.219287 0.550744
0.531121 0.2159 0.552758
0.682078 0.211368 0.555245
0.829862 0.205631 0.558267
0.975845 0.198535 0.561791
1 0.189929 0.565866
0 0.397925 0.532418
0.0108034 0.397543 0.533211
0.222324 0.39678 0.534356
0.387121 0.395453 0.535897
0.540047 0.39353 0.537926
0.688365 0.390967 0.540475
0.83444 0.387778 0.543572
0.979187 0.383856 0.547204
1 0.379217 0.5514
0 0.557046 0.510643
0.0817884 0.556817 0.511437
0.253635 0.556283 0.512535
0.406043 0.555352 0.514107
0.553216 0.554009 0.516197
0.698161 0.552239 0.518837
0.842008 0.550011 0.522042
0.985183 0.547311 0.525826
1 0.544091 0.530175
0.00503548 0.710567 0.480598
0.151614 0.710384 0.481331
0.289754 0.709972 0.482444
0.429694 0.709255 0.484062
0.570321 0.708232 0.486275
0.711269 0.706905 0.489067
0.852369 0.705196 0.492454
0.993606 0.703151 0.496452
1 0.70071 0.50106
0.111864 0.861341 0.440177
0.213855 0.861143 0.440864
0.329397 0.860807 0.442023
0.457481 0.860243 0.443778
0.591089 0.859419 0.446143
0.727504 0.858351 0.449165
0.865476 0.856992 0.452827
1 0.85536 0.457176
1 0.853407 0.462165
0.195956 1 0.385733
0.272618 1 0.386465
0.371633 1 0.387717
0.488807 1 0.389685
0.615244 1 0.39234
0.746761 1 0.395743
0.881224 1 0.399878
1 1 0.404746
1 1 0.410376
0.267292 1 0.309941
0.329458 1 0.310796
0.415854 1 0.312322
0.523156 1 0.314672
0.642496 1 0.317891
0.768872 1 0.321996
0.899565 1 0.326986
1 1 0.33286
1 1 0.339605
0 0 0.698634
0 0 0.69926
0.0620127 0 0.700389
0.318257 0 0.700893
0.497093 0 0.702831
0.658869 0 0.704936
0.813352 0 0.707362
0.964004 0 0.710155
1 0 0.713359
0 0 0.695018
0 0 0.694682
0.0809033 0 0.696162
0.322545 0 0.697673
0.498527 0 0.699397
0.658991 0 0.701427
0.812711 0 0.703838
0.962844 0 0.70663
1 0 0.709834
0 0.16939 0.688426
0 0.168399 0.689113
0.108171 0.16669 0.690318
0.329503 0.163699 0.691676
0.501152 0.159365 0.693339
0.659464 0.153552 0.695384
0.811841 0.146075 0.697826
0.960998 0.136706 0.700664
1 0.125063 0.703929
0 0.367758 0.677302
0 0.367346 0.677989
0.145281 0.366598 0.679118
0.344656 0.365179 0.68043
0.510338 0.363104 0.682078
0.665599 0.360327 0.684123
0.816052 0.356863 0.686595
0.963867 0.352621 0.689509
1 0.34757 0.692851
0 0.535836 0.660822
0 0.535607 0.661509
0.187579 0.535119 0.662562
0.36582 0.534188 0.663859
0.524269 0.532799 0.665522
0.675685 0.530953 0.667613
0.823697 0.528634 0.670115
0.969833 0.525811 0.673091
1 0.522469 0.676509
0 0.694209 0.638407
0.0401465 0.694072 0.639109
0.232837 0.693706 0.64007
0.391943 0.692988 0.641367
0.542336 0.691951 0.643076
0.689204 0.690578 0.645212
0.834272 0.688838 0.647807
0.978332 0.686732 0.650858
1 0.68423 0.654398
0 0.848066 0.609186
0.136309 0.847944 0.609812
0.279896 0.847623 0.610727
0.422248 0.847044 0.612039
0.564202 0.846235 0.613809
0.705974 0.845151 0.616053
0.847654 0.843763 0.618753
0.989303 0.8421 0.621958
1 0.840116 0.62565
0.111833 0.99942 0.57174
0.21294 0.999268 0.57229
0.328145 0.998993 0.573205
0.456031 0.99852 0.574578
0.589517 0.997848 0.57644
0.725826 0.996963 0.578805
0.863737 0.995819 0.581674
1 0.994446 0.585077
1 0.992798 0.588983
0.206851 1 0.523919
0.280507 1 0.524468
0.377218 1 0.525414
0.492668 1 0.526894
0.617899 1 0.528893
0.748547 1 0.531456
0.882399 1 0.534569
1 1 0.538262
1 1 0.542535
0 0 0.836057
0 0 0.836622
0 0 0.837629
0.251606 0 0.838972
0.457511 0 0.839734
0.630671 0 0.841657
0.791669 0 0.843763
0.946593 0 0.846159
1 0 0.848859
0 0 0.833249
0 0 0.833829
0 0 0.833753
0.257527 0 0.835584
0.459525 0 0.837201
0.631052 0 0.839002
0.79115 0 0.841062
0.94548 0 0.843427
1 0 0.846128
0 0.0740826 0.828214
0 0.072343 0.828855
0 0.069398 0.829984
0.266453 0.0646067 0.831403
0.462013 0.0577249 0.832868
0.631037 0.0487526 0.834592
0.789731 0.0376135 0.836622
0.94316 0.0242466 0.838987
1 0.00857557 0.841672
0 0.326986 0.819791
0 0.326497 0.820401
0 0.325673 0.821485
0.284367 0.324163 0.822782
0.471153 0.321828 0.824216
0.636408 0.31873 0.825956
0.792859 0.314809 0.828046
0.944701 0.310018 0.830457
1 0.304295 0.833249
0 0.508461 0.806745
0 0.508202 0.80734
0.0657511 0.507774 0.808438
0.309621 0.506828 0.809613
0.486213 0.505379 0.811048
0.64686 0.503426 0.812787
0.80058 0.500984 0.814878
0.950591 0.497993 0.817334
1 0.494453 0.820157
0 0.673457 0.789029
0 0.673335 0.789654
0.140932 0.673045 0.790661
0.340063 0.672343 0.791791
0.50573 0.67129 0.793225
0.661006 0.669871 0.79498
0.811429 0.668086 0.797101
0.959228 0.665904 0.799603
1 0.663325 0.802487
0 0.831373 0.766186
0 0.831296 0.766812
0.205921 0.831052 0.767712
0.374594 0.830503 0.768826
0.529229 0.829679 0.770275
0.678523 0.82855 0.772061
0.825208 0.827161 0.774243
0.970382 0.825452 0.776806
1 0.823423 0.779767
0 0.985489 0.73753
0.113588 0.985443 0.738125
0.266255 0.985168 0.738903
0.412299 0.98471 0.740017
0.556222 0.984039 0.741482
0.699229 0.983139 0.743358
0.841749 0.981994 0.745602
0.983978 0.980591 0.748257
1 0.978943 0.751339
0.10547 1 0.702098
0.20798 1 0.702541
0.324102 1 0.703304
0.452522 1 0.704448
0.586328 1 0.705974
0.722866 1 0.707912
0.860929 1 0.710262
0.999939 1 0.713054
1 1 0.716274
0 0 0.973251
0 0 0.97377
0 0 0.974701
0.136736 0 0.976135
0.404303 0 0.97641
0.594751 0 0.978393
0.764645 0 0.980331
0.925124 0 0.982452
1 0 0.984817
0 0 0.971038
0 0 0.971557
0 0 0.972488
0.149264 0 0.972915
0.407248 0 0.974685
0.595468 0 0.976364
0.764294 0 0.97821
0.924132 0 0.980301
1 0 0.982651
0 0 0.966674
0 0 0.967346
0 0 0.968475
0.166796 0 0.970062
0.411048 0 0.97145
0.595956 0 0.973007
0.763134 0 0.974792
0.92195 0 0.976852
1 0 0.979187
0 0.271015 0.9608
0 0.270405 0.961349
0 0.269368 0.962371
0.192279 0.267659 0.963836
0.419593 0.264897 0.965164
0.599664 0.261173 0.96669
0.764279 0.256443 0.968505
0.921386 0.250629 0.970596
1 0.243641 0.972976
0 0.473625 0.950225
0 0.47335 0.95079
0 0.472877 0.951782
0.227024 0.472007 0.95314
0.436408 0.470451 0.954421
0.610574 0.468376 0.955947
0.772 0.465721 0.957732
0.927077 0.462516 0.959838
1 0.458686 0.962264
0 0.647776 0.93576
0 0.647608 0.936309
0 0.647364 0.937316
0.266423 0.646738 0.938506
0.458183 0.64567 0.939773
0.625574 0.644205 0.941299
0.78323 0.642329 0.943099
0.935851 0.64007 0.945235
1 0.637385 0.947692
0 0.810956 0.917128
0 0.81088 0.917693
0.0720378 0.810727 0.918685
0.308904 0.810224 0.919738
0.484138 0.809384 0.920989
0.64416 0.808255 0.92253
0.797528 0.806821 0.924376
0.94728 0.805066 0.926528
1 0.802976 0.929
0 0.968551 0.893965
0 0.968521 0.89453
0.17084 0.968368 0.895399
0.353491 0.967941 0.896406
0.513664 0.967269 0.897658
0.666041 0.966354 0.899214
0.814694 0.965194 0.901091
0.961227 0.96376 0.903288
1 0.962081 0.905852
0 1 0.865751
0.0801099 1 0.8663
0.248264 1 0.867018
0.399603 1 0.867979
0.546273 1 0.869261
0.690929 1 0.870848
0.834562 1 0.87277
0.9776 1 0.875044
1 1 0.877653
0 0 1
0 0 1
0 0 1
0 0 1
0.330663 0 1
0.548974 0 1
0.731334 0 1
0.899107 0 1
1 0 1
0 0 1
0 0 1
0 0 1
0 0 1
0.334707 0 1
0.55021 0 1
0.731212 0 1
0.898253 0 1
1 0 1
0 0 1
0 0 1
0 0 1
0 0 1
0.340917 0 1
0.551431 0 1
0.730404 0 1
0.896254 0 1
1 0 1
0 0.188785 1
0 0.187884 1
0 0.186358 1
0.00329595 0.183963 1
0.35021 0.180194 1
0.553735 0.174975 1
0.729625 0.168276 1
0.893629 0.159915 1
1 0.149645 1
0 0.429419 1
0 0.429084 1
0 0.428519 1
0.0751965 0.427665 1
0.370016 0.426017 1
0.565133 0.423713 1
0.737163 0.420798 1
0.898833 0.417227 1
1 0.41297 1
0 0.616342 1
0 0.616175 1
0 0.615869 1
0.147875 0.615381 1
0.395605 0.614298 1
0.581369 0.612757 1
0.748867 0.610803 1
0.907759 0.608408 1
1 0.605554 1
0 0.786389 1
0 0.786297 1
0 0.786145 1
0.211353 0.785794 1
0.425559 0.78497 1
0.601465 0.783795 1
0.763851 0.78233 1
0.919539 0.780529 1
1 0.778363 1
0 0.948363 1
0 0.948318 1
0 0.948241 1
0.270802 0.947921 1
0.459052 0.94725 1
0.624994 0.946319 1
0.781857 0.945144 1
0.933928 0.943694 1
1 0.94197 1
0 1 1
0 1 1
0.123445 1 1
0.328008 1 1
0.49543 1 1
0.651606 1 1
0.80264 1 1
0.95082 1 1
1 1 1
