profiles/cube/Aptus-II_5_Flash_1.L_000072.cube
TITLE "Generated by Resolve"
LUT_3D_SIZE 5
0 0 0
0.29601 0 0.00610361
0.579004 0 0.0199588
0.862287 0 0.0430915
1 0 0.0772106
0.052781 0.30547 0
0.312078 0.303716 0
0.585184 0.299351 0
0.864378 0.291722 0
1 0.280293 0.00643931
0.153246 0.595987 0
0.35169 0.595117 0
0.605997 0.59295 0
0.877058 0.589181 0
1 0.583642 0
0.25742 0.886793 0
0.411154 0.886213 0
0.641367 0.884825 0
0.900435 0.882445 0
1 0.878889 0
0.362051 1 0
0.484688 1 0
0.689952 1 0
0.934249 1 0
1 1 0
0 0 0.285039
0.264057 0 0.287587
0.563546 0 0.293736
0.852613 0 0.303349
1 0 0.316487
0 0.28278 0.255116
0.281331 0.28098 0.258259
0.568994 0.276295 0.264881
0.853742 0.268101 0.275471
1 0.255756 0.289937
0.0932021 0.584283 0.165698
0.324193 0.583413 0.169802
0.58996 0.581216 0.178912
0.866072 0.577401 0.193332
1 0.571771 0.212604
0.220691 0.878996 0
0.387533 0.878431 0
0.626093 0.877058 0
0.889494 0.874632 0
1 0.871077 0
0.335546 1 0
0.464637 1 0
0.675776 1 0
0.923751 1 0
1 1 0
0 0 0.560983
0.172564 0 0.5617
0.526665 0 0.565942
0.830411 0 0.571359
1 0 0.578714
0 0.223804 0.547204
0.197513 0.221668 0.549203
0.531121 0.2159 0.552758
0.829862 0.205631 0.558267
1 0.189929 0.565866
0 0.557046 0.510643
0.253635 0.556283 0.512535
0.553216 0.554009 0.516197
0.842008 0.550011 0.522042
1 0.544091 0.530175
0.111864 0.861341 0.440177
0.329397 0.860807 0.442023
0.591089 0.859419 0.446143
0.865476 0.856992 0.452827
1 0.853407 0.462165
0.267292 1 0.309941
0.415854 1 0.312322
0.642496 1 0.317891
0.899565 1 0.326986
1 1 0.339605
0 0 0.836057
0 0 0.837629
0.457511 0 0.839734
0.791669 0 0.843763
1 0 0.848859
0 0.0740826 0.828214
0 0.069398 0.829984
0.462013 0.0577249 0.832868
0.789731 0.0376135 0.836622
1 0.00857557 0.841672
0 0.508461 0.806745
0.0657511 0.507774 0.808438
0.486213 0.505379 0.811048
0.80058 0.500984 0.814878
1 0.494453 0.820157
0 0.831373 0.766186
0.205921 0.831052 0.767712
0.529229 0.829679 0.770275
0.825208 0.827161 0.774243
1 0.823423 0.779767
0.10547 1 0.702098
0.324102 1 0.703304
0.586328 1 0.705974
0.860929 1 0.710262
1 1 0.716274
0 0 1
0 0 1
0.330663 0 1
0.731334 0 1
1 0 1
0 0 1
0 0 1
0.340917 0 1
0.730404 0 1
1 0 1
0 0.429419 1
0 0.428519 1
0.370016 0.426017 1
0.737163 0.420798 1
1 0.41297 1
0 0.786389 1
0 0.786145 1
0.425559 0.78497 1
0.763851 0.78233 1
1 0.778363 1
0 1 1
0.123445 1 1
0.49543 1 1
0.80264 1 1
1 1 1
