profiles/cube/Aptus-II_5_Flash_1.L_000072.cube
TITLE "Generated by Resolve"
LUT_3D_SIZE 17
0 0 0
0.0827649 0 0.00112917
0.154635 0 0.00231937
0.225299 0 0.00396735
0.29601 0 0.00610361
0.366735 0 0.00874342
0.437461 0 0.0119326
0.508217 0 0.015671
0.579004 0 0.0199588
0.649805 0 0.0248417
0.720607 0 0.0303197
0.79144 0 0.0363928
0.862287 0 0.0430915
0.933135 0 0.0504158
1 0 0.0585031
1 0 0.0675059
1 0 0.0772106
0.00877394 0.0865339 0
0.0907607 0.0857252 0
0.159503 0.0847944 0
0.228534 0.0834669 0
0.298207 0.0816815 0
0.368246 0.0791943 0
0.438468 0.0764477 0
0.508858 0.073228 0.00337224
0.579324 0.0694896 0.00767529
0.649882 0.0652323 0.0125582
0.720516 0.060441 0.0180362
0.79118 0.0551003 0.0241245
0.861891 0.0492409 0.030808
0.932647 0.0428321 0.0381323
1 0.035874 0.0460975
1 0.0283207 0.054551
1 0.0201877 0.0643931
0.0190127 0.160342 0
0.0995499 0.159823 0
0.165316 0.159228 0
0.23267 0.158373 0
0.301274 0.157229 0
0.370565 0.155764 0
0.440253 0.153994 0
0.510216 0.151873 0
0.580362 0.149386 0
0.650629 0.146502 0
0.721019 0.143221 0.0043946
0.79147 0.139483 0.0104829
0.861982 0.135271 0.0171969
0.93257 0.130556 0.0245365
1 0.125277 0.032517
1 0.119356 0.0411383
1 0.112764 0.0504311
0.0335241 0.232883 0
0.111208 0.232517 0
0.173434 0.23209 0
0.238682 0.231464 0
0.305882 0.230625 0
0.374197 0.229572 0
0.443183 0.22829 0
0.512596 0.226764 0
0.582315 0.224979 0
0.652232 0.222919 0
0.722332 0.220584 0
0.792554 0.21796 0
0.862852 0.215015 0
0.933227 0.211749 0.00547799
1 0.208148 0.0134737
1 0.204181 0.0221103
1 0.199817 0.0314031
0.052781 0.30547 0
0.12546 0.30518 0
0.183795 0.304845 0
0.246555 0.304356 0
0.312078 0.303716 0
0.379171 0.302907 0
0.447272 0.301915 0
0.515999 0.300725 0
0.585184 0.299351 0
0.654673 0.297765 0
0.724422 0.295979 0
0.794324 0.293965 0
0.864378 0.291722 0
0.934524 0.28925 0
1 0.286519 0
1 0.283543 0
1 0.280293 0.00643931
0.0752575 0.378058 0
0.141833 0.377844 0
0.196216 0.377554 0
0.256229 0.377172 0
0.319814 0.376654 0
0.385504 0.375998 0
0.452537 0.375189 0
0.520455 0.374243 0
0.588983 0.373129 0
0.657954 0.371847 0
0.72726 0.370413 0
0.796811 0.368795 0
0.86656 0.366995 0
0.936446 0.365011 0
1 0.362829 0
1 0.360464 0
1 0.357885 0
0.10132 0.45069 0
0.15993 0.450492 0
0.210452 0.450263 0
0.267597 0.449943 0
0.329046 0.449516 0
0.393149 0.448966 0
0.458976 0.448295 0
0.525933 0.447501 0
0.593729 0.446586 0
0.662074 0.445518 0
0.730877 0.444312 0
0.8 0.442969 0
0.869383 0.441474 0
0.938979 0.439841 0
1 0.438025 0
1 0.436057 0
1 0.433936 0
0.127275 0.523339 0
0.179416 0.523171 0
0.226291 0.522972 0
0.280507 0.522683 0
0.339696 0.522316 0
0.402075 0.521859 0
0.466545 0.521279 0
0.532464 0.520607 0
0.59939 0.519829 0
0.667063 0.518914 0
0.735286 0.517906 0
0.803937 0.516762 0
0.872877 0.51548 0
0.942123 0.514076 0
1 0.512551 0
1 0.510887 0
1 0.509071 0
0.153246 0.595987 0
0.2 0.595834 0
0.243473 0.595666 0
0.29482 0.595422 0
0.35169 0.595117 0
0.412238 0.594705 0
0.475257 0.594217 0
0.540002 0.593622 0
0.605997 0.59295 0
0.672892 0.592157 0
0.740459 0.591272 0
0.80856 0.59028 0
0.877058 0.589181 0
0.945891 0.587961 0
1 0.586633 0
1 0.585199 0
1 0.583642 0
0.179248 0.668666 0
0.221469 0.668528 0
0.261845 0.668376 0
0.310399 0.668162 0
0.364935 0.667887 0
0.423575 0.667536 0
0.485039 0.667094 0
0.548547 0.666575 0
0.613504 0.66598 0
0.679561 0.665293 0
0.746426 0.664515 0
0.813916 0.66363 0
0.881895 0.662669 0
0.950286 0.661601 0
1 0.660441 0
1 0.659175 0
1 0.657786 0
0.20528 0.74136 0
0.243656 0.741238 0
0.281209 0.7411 0
0.327108 0.740917 0
0.379309 0.740658 0
0.435996 0.740337 0
0.495888 0.739956 0
0.558068 0.739498 0
0.621927 0.738964 0
0.687053 0.738338 0
0.753155 0.737652 0
0.819974 0.736873 0
0.887404 0.736019 0
0.955306 0.735058 0
1 0.734035 0
1 0.732906 0
1 0.731685 0
0.231327 0.814069 0
0.266423 0.813947 0
0.301427 0.81384 0
0.344808 0.813657 0
0.394751 0.813443 0
0.449485 0.813153 0
0.507713 0.812802 0
0.568505 0.81239 0
0.63122 0.811917 0
0.695384 0.811368 0
0.760632 0.810727 0
0.82678 0.81004 0
0.893584 0.809262 0
0.960967 0.808423 0
1 0.807477 0
1 0.80647 0
1 0.805371 0
0.25742 0.886793 0
0.289677 0.886687 0
0.322377 0.886564 0
0.363409 0.886427 0
0.411154 0.886213 0
0.463935 0.885954 0
0.5205 0.885649 0
0.579858 0.885267 0
0.641367 0.884825 0
0.704494 0.884337 0
0.768887 0.883772 0
0.834257 0.883131 0
0.900435 0.882445 0
0.967224 0.881666 0
1 0.880812 0
1 0.879896 0
1 0.878889 0
0.283528 0.959533 0
0.313344 0.959442 0
0.343954 0.959335 0
0.382803 0.959197 0
0.428428 0.959014 0
0.479286 0.958755 0
0.534173 0.95848 0
0.592096 0.958144 0
0.652354 0.957732 0
0.714397 0.957275 0
0.777874 0.956771 0
0.842451 0.956191 0
0.907912 0.95555 0
0.974121 0.954849 0
1 0.95407 0
1 0.953231 0
1 0.952331 0
0.309667 1 0
0.337331 1 0
0.366064 1 0
0.402869 1 0
0.446479 1 0
0.495491 1 0
0.548699 1 0
0.605158 1 0
0.664134 1 0
0.725078 1 0
0.787579 1 0
0.851316 1 0
0.91606 1 0
0.981598 1 0
1 1 0
1 1 0
1 1 0
0.335851 1 0
0.361624 1 0
0.388663 1 0
0.42356 1 0
0.465263 1 0
0.512459 1 0
0.564004 1 0
0.618997 1 0
0.676677 1 0
0.736492 1 0
0.798001 1 0
0.860868 1 0
0.924834 1 0
0.989731 1 0
1 1 0
1 1 0
1 1 0
0.362051 1 0
0.38616 1 0
0.411643 1 0
0.4448 1 0
0.484688 1 0
0.530129 1 0
0.580056 1 0
0.633585 1 0
0.689952 1 0
0.748608 1 0
0.80911 1 0
0.871077 1 0
0.934249 1 0
0.998428 1 0
1 1 0
1 1 0
1 1 0
0 0 0.0759136
0.0679332 0 0.0768292
0.144793 0 0.078172
0.218112 0 0.079942
0.290394 0 0.082475
0.362173 0 0.0852369
0.433646 0 0.0884871
0.504967 0 0.0922103
0.576165 0 0.096376
0.647288 0 0.100984
0.718379 0 0.106004
0.789425 0 0.111406
0.860471 0 0.117189
0.931502 0 0.123293
1 0 0.129702
1 0 0.1364
1 0 0.143374
0 0.0758831 0.0630655
0.0763561 0.0750439 0.0642557
0.14995 0.0740978 0.0655375
0.221439 0.0727398 0.067277
0.292622 0.0709392 0.0695354
0.363668 0.0686809 0.0723278
0.434638 0.0659495 0.0756847
0.505577 0.0627146 0.0796368
0.576471 0.0589761 0.0843824
0.647364 0.0547189 0.0893568
0.718273 0.049958 0.0947585
0.789181 0.0446479 0.100542
0.86009 0.0388037 0.106691
0.930999 0.0323949 0.113176
1 0.0254215 0.119966
1 0.0178683 0.127047
1 0.00975052 0.134356
0.00419623 0.153445 0.049134
0.0861677 0.152911 0.0502785
0.156008 0.1523 0.0514839
0.22565 0.151415 0.0531319
0.295689 0.150225 0.0551461
0.365957 0.148714 0.0580758
0.436362 0.146883 0.0614328
0.506859 0.144686 0.0653697
0.577417 0.142107 0.0699168
0.64802 0.139116 0.0750744
0.718669 0.135698 0.0808881
0.789349 0.131823 0.0874647
0.860075 0.127443 0.0941482
0.9308 0.122515 0.101152
1 0.116976 0.108461
1 0.110796 0.116014
1 0.103853 0.123827
0.0186923 0.227787 0.0300908
0.0988327 0.22742 0.0312047
0.164477 0.226978 0.0324102
0.2318 0.226352 0.0340734
0.300359 0.225498 0.0362249
0.369619 0.22443 0.0388952
0.439292 0.223117 0.0420996
0.509224 0.221561 0.0458534
0.579355 0.21973 0.0501717
0.649592 0.217639 0.0549325
0.719951 0.215259 0.0608377
0.790387 0.212573 0.0672923
0.860868 0.209567 0.074403
0.931395 0.206226 0.0824445
1 0.202548 0.0906386
1 0.198489 0.0990616
1 0.194034 0.107668
0.0378576 0.301457 0.00511177
0.114122 0.301167 0.00622568
0.17528 0.300832 0.00741588
0.239872 0.300343 0.00907912
0.306645 0.299702 0.0112306
0.374655 0.298878 0.013901
0.443412 0.297871 0.0171054
0.512642 0.296666 0.0208591
0.582208 0.295277 0.0251926
0.652033 0.293675 0.0300908
0.722026 0.291859 0.0355993
0.792142 0.289815 0.0417182
0.862364 0.287541 0.0484474
0.932692 0.285039 0.0556649
1 0.282277 0.064271
1 0.279255 0.0734569
1 0.275959 0.0835889
0.0612039 0.374777 0
0.131487 0.374548 0
0.188159 0.374273 0
0.249775 0.373877 0
0.314504 0.373358 0
0.381048 0.372702 0
0.448707 0.371893 0
0.517113 0.370932 0
0.586023 0.369802 0
0.655314 0.368521 0
0.724865 0.367071 0.00442512
0.794629 0.365438 0.010544
0.864546 0.363622 0.0172732
0.9346 0.361624 0.0246433
1 0.359411 0.032639
1 0.357015 0.0412909
1 0.354421 0.0506142
0.0884108 0.447913 0
0.1505 0.447715 0
0.202853 0.447501 0
0.261387 0.447166 0
0.323888 0.446738 0
0.388769 0.446189 0
0.455192 0.445502 0
0.522622 0.444709 0
0.590784 0.443793 0
0.659449 0.442725 0
0.728496 0.441505 0
0.797833 0.440162 0
0.867384 0.438651 0
0.937118 0.436988 0
1 0.435187 0
1 0.433204 0.00370794
1 0.431052 0.0130312
0.116228 0.520928 0
0.170809 0.520775 0
0.21915 0.520577 0
0.274571 0.520302 0
0.334691 0.519936 0
0.397787 0.519463 0
0.462837 0.518883 0
0.529198 0.518212 0
0.596475 0.517418 0
0.664439 0.516518 0
0.732891 0.51548 0
0.801755 0.514336 0
0.870878 0.513054 0
0.940261 0.51165 0
1 0.510109 0
1 0.508431 0
1 0.506615 0
0.143618 0.593896 0
0.192126 0.593744 0
0.236774 0.593576 0
0.289143 0.593317 0
0.346853 0.593011 0
0.408057 0.592599 0
0.471611 0.592111 0
0.536782 0.591516 0
0.603098 0.590829 0
0.670298 0.590051 0
0.738094 0.589166 0
0.806394 0.588174 0
0.875059 0.58706 0
0.944045 0.58584 0
1 0.584512 0
1 0.583062 0
1 0.581491 0
0.170718 0.666789 0
0.214237 0.666651 0
0.255558 0.666514 0
0.304982 0.6663 0
0.36025 0.666026 0
0.419486 0.66566 0
0.481468 0.665232 0
0.545373 0.664698 0
0.610651 0.664103 0
0.676982 0.663417 0
0.744076 0.662638 0
0.811749 0.661753 0
0.879911 0.660777 0
0.94844 0.659724 0
1 0.658549 0
1 0.657267 0
1 0.655894 0
0.19762 0.739666 0
0.236988 0.739544 0
0.275303 0.739422 0
0.32195 0.739239 0
0.374807 0.738979 0
0.432044 0.738659 0
0.492378 0.738277 0
0.55494 0.737819 0
0.61912 0.737285 0
0.684504 0.73666 0
0.75082 0.735973 0
0.817838 0.735195 0
0.885435 0.734325 0
0.953475 0.733379 0
1 0.732341 0
1 0.731212 0
1 0.729992 0
0.224399 0.812543 0
0.260258 0.812421 0
0.295888 0.812314 0
0.339895 0.812131 0
0.390417 0.811902 0
0.44564 0.811612 0
0.504295 0.811292 0
0.565454 0.810864 0
0.628443 0.810376 0
0.692866 0.809827 0
0.758343 0.809201 0
0.824659 0.808515 0
0.89163 0.807736 0
0.959121 0.806882 0
1 0.805951 0
1 0.804929 0
1 0.803815 0
0.251087 0.88539 0
0.283955 0.885283 0
0.317159 0.885176 0
0.358724 0.885023 0
0.406973 0.884825 0
0.460212 0.884565 0
0.517159 0.884245 0
0.576852 0.883864 0
0.638651 0.883436 0
0.702007 0.882933 0
0.766598 0.882368 0
0.832151 0.881743 0
0.898466 0.881025 0
0.965408 0.880262 0
1 0.879408 0
1 0.878492 0
1 0.877501 0
0.277714 0.958251 0
0.308003 0.95816 0
0.33904 0.958053 0
0.378332 0.957916 0
0.424399 0.957717 0
0.475685 0.957488 0
0.530922 0.957198 0
0.589151 0.956847 0
0.649668 0.956451 0
0.711955 0.956008 0
0.775616 0.955474 0
0.84036 0.95491 0
0.905974 0.954253 0
0.972305 0.953567 0
1 0.952789 0
1 0.951949 0
1 0.951034 0
0.304295 1 0
0.332341 1 0
0.361425 1 0
0.398611 1 0
0.442618 1 0
0.491981 1 0
0.54551 1 0
0.602258 1 0
0.661494 1 0
0.722667 1 0
0.785351 1 0
0.849256 1 0
0.914153 1 0
0.979812 1 0
1 1 0
1 1 0
1 1 0
0.330846 1 0
0.356924 1 0
0.384268 1 0
0.419516 1 0
0.46154 1 0
0.509071 1 0
0.560922 1 0
0.616159 1 0
0.674098 1 0
0.734112 1 0
0.795789 1 0
0.858824 1 0
0.922942 1 0
0.987945 1 0
1 1 0
1 1 0
1 1 0
0.357366 1 0
0.381735 1 0
0.407477 1 0
0.440925 1 0
0.481117 1 0
0.526848 1 0
0.57705 1 0
0.630823 1 0
0.687419 1 0
0.746273 1 0
0.806943 1 0
0.869062 1 0
0.932372 1 0
0.996674 1 0
1 1 0
1 1 0
1 1 0
0 0 0.146792
0.0521096 0 0.147189
0.133593 0 0.148241
0.210147 0 0.149523
0.28426 0 0.151141
0.357229 0 0.153079
0.429541 0 0.155352
0.501472 0 0.157992
0.573144 0 0.160967
0.644648 0 0.164279
0.71603 0 0.167941
0.78735 0 0.171939
0.858579 0 0.176226
0.929793 0 0.18085
1 0 0.185748
1 0 0.190951
1 0 0.196414
0 0.0645151 0.137728
0.0607309 0.0636759 0.138659
0.139116 0.0627146 0.139635
0.213596 0.0613565 0.140932
0.286549 0.059556 0.142565
0.358755 0.0572976 0.144579
0.430533 0.0545663 0.146944
0.502083 0.0513466 0.149676
0.573449 0.0476234 0.152773
0.644724 0.0433967 0.156222
0.715923 0.0386206 0.160021
0.78706 0.0333257 0.164157
0.858183 0.0274815 0.168627
0.92929 0.0210727 0.173404
1 0.0140993 0.178485
1 0.00656138 0.183841
1 0 0.189487
0 0.145708 0.127382
0.0704051 0.145159 0.128344
0.145464 0.144518 0.129351
0.217868 0.143603 0.130694
0.289586 0.142367 0.132418
0.360983 0.14081 0.134539
0.432181 0.138888 0.137026
0.503258 0.136599 0.13991
0.574289 0.133913 0.14316
0.645258 0.1308 0.146792
0.716213 0.12723 0.150774
0.787137 0.123171 0.155123
0.858061 0.118578 0.159792
0.929 0.11339 0.164797
0.999908 0.107561 0.170092
1 0.101015 0.175677
1 0.0936446 0.181552
0.00257877 0.222156 0.111681
0.0843061 0.22179 0.112703
0.154376 0.221347 0.113787
0.22417 0.220691 0.115236
0.294301 0.219837 0.117098
0.36463 0.218738 0.119371
0.435065 0.217395 0.122072
0.505592 0.215808 0.125185
0.576165 0.213947 0.128695
0.646769 0.211795 0.132601
0.717418 0.209369 0.136904
0.788098 0.206622 0.141543
0.858793 0.20354 0.146548
0.929534 0.200137 0.151888
1 0.196353 0.157534
1 0.192203 0.16347
1 0.187625 0.16968
0.0217136 0.297047 0.0884718
0.100954 0.296773 0.0896162
0.165667 0.296422 0.0908217
0.232456 0.295933 0.0924849
0.300679 0.295277 0.0946059
0.369696 0.294453 0.0971847
0.439185 0.293431 0.100237
0.508995 0.29221 0.103746
0.579004 0.290806 0.107713
0.649165 0.289189 0.112093
0.719448 0.287343 0.116869
0.789807 0.285283 0.122042
0.860243 0.282979 0.127581
0.930755 0.28043 0.133455
1 0.277638 0.139635
1 0.274571 0.14612
1 0.271229 0.152865
0.0457771 0.371176 0.0554818
0.119615 0.370947 0.056611
0.17908 0.370672 0.057847
0.242618 0.370291 0.0597696
0.308659 0.369757 0.0620279
0.37615 0.369085 0.0648508
0.444511 0.368277 0.0682383
0.513466 0.367315 0.0722362
0.582803 0.366171 0.0768292
0.65243 0.364874 0.0822919
0.722271 0.363409 0.088014
0.792264 0.361761 0.0941329
0.862379 0.35993 0.100618
0.932586 0.357916 0.107424
1 0.355688 0.114549
1 0.353277 0.121935
1 0.350652 0.12958
0.0731365 0.444892 0.0180056
0.139788 0.444694 0.019089
0.194354 0.444465 0.0202792
0.25452 0.444144 0.0219272
0.318196 0.443702 0.0240787
0.383963 0.443153 0.0267338
0.451057 0.442481 0.0299382
0.51902 0.441672 0.0336919
0.587579 0.440742 0.0380255
0.656565 0.439658 0.0429389
0.725887 0.438437 0.0484321
0.795453 0.437079 0.0543984
0.865202 0.435569 0.0616007
0.935088 0.43389 0.0694438
1 0.432074 0.0780041
1 0.430076 0.0873884
1 0.427924 0.0966964
0.103471 0.518334 0
0.161105 0.518166 0
0.211185 0.517968 0
0.267994 0.517693 0
0.329183 0.517327 0
0.393103 0.516854 0
0.458762 0.516274 0
0.525628 0.515587 0
0.593301 0.514794 0
0.661585 0.513893 0
0.730312 0.512856 0.00416571
0.799374 0.511696 0.0102846
0.868711 0.510414 0.0170138
0.938262 0.50901 0.0243839
1 0.507454 0.0323949
1 0.505776 0.0410468
1 0.503944 0.0503548
0.132662 0.591608 0
0.183307 0.591455 0
0.229343 0.591287 0
0.282872 0.591043 0
0.341527 0.590723 0
0.403479 0.590311 0
0.467613 0.589822 0
0.533257 0.589227 0
0.59997 0.58854 0
0.66746 0.587762 0
0.735515 0.586862 0
0.804044 0.58587 0
0.872892 0.584741 0
0.942031 0.583535 0
1 0.582193 0
1 0.580743 0
1 0.579156 0
0.161105 0.664759 0
0.20618 0.664622 0
0.2486 0.664485 0
0.299016 0.664256 0
0.355123 0.663981 0
0.415045 0.66363 0
0.477562 0.663203 0
0.541909 0.662684 0
0.607569 0.662074 0
0.674174 0.661372 0
0.741512 0.660594 0
0.809415 0.659724 0
0.877745 0.658747 0
0.946441 0.657679 0
1 0.656504 0
1 0.655207 0
1 0.653834 0
0.189075 0.73785 0
0.229603 0.737728 0
0.268803 0.737606 0
0.316274 0.737408 0
0.369863 0.737148 0
0.427726 0.736843 0
0.488563 0.736461 0
0.551537 0.735988 0
0.616053 0.735454 0
0.681727 0.734829 0
0.748287 0.734142 0
0.815518 0.733364 0
0.883284 0.732494 0
0.951476 0.731533 0
1 0.730495 0
1 0.729351 0
1 0.72813 0
0.216693 0.81088 0
0.253437 0.810773 0
0.289784 0.810651 0
0.334508 0.810483 0
0.385657 0.810239 0
0.441444 0.809964 0
0.500572 0.809628 0
0.562097 0.809201 0
0.625437 0.808713 0
0.69012 0.808164 0
0.755825 0.807553 0
0.822339 0.806836 0
0.889494 0.806073 0
0.957137 0.805203 0
1 0.804273 0
1 0.803265 0
1 0.802152 0
0.244083 0.883879 0
0.277638 0.883787 0
0.311437 0.883665 0
0.353613 0.883513 0
0.402411 0.883299 0
0.456153 0.883055 0
0.513527 0.882734 0
0.573587 0.882353 0
0.635691 0.881926 0
0.699306 0.881422 0
0.764126 0.880858 0
0.829862 0.880217 0
0.896361 0.879515 0
0.963439 0.878737 0
1 0.877897 0
1 0.876966 0
1 0.875959 0
0.271305 0.956863 0
0.302129 0.956756 0
0.333654 0.956649 0
0.373465 0.956497 0
0.42002 0.956313 0
0.471748 0.956085 0
0.527367 0.955795 0
0.585946 0.955444 0
0.646754 0.955062 0
0.7093 0.954604 0
0.773175 0.954086 0
0.838102 0.953506 0
0.903883 0.952865 0
0.970352 0.952163 0
1 0.951385 0
1 0.950545 0
1 0.94963 0
0.298375 1 0
0.326848 1 0
0.356344 1 0
0.393988 1 0
0.438407 1 0
0.488182 1 0
0.542077 1 0
0.59913 1 0
0.658625 1 0
0.720043 1 0
0.78294 1 0
0.847028 1 0
0.912062 1 0
0.97789 1 0
1 1 0
1 1 0
1 1 0
0.325353 1 0
0.351797 1 0
0.379461 1 0
0.415091 1 0
0.457511 1 0
0.505379 1 0
0.557565 1 0
0.613108 1 0
0.67129 1 0
0.731533 1 0
0.793423 1 0
0.856626 1 0
0.920897 1 0
0.986023 1 0
1 1 0
1 1 0
1 1 0
0.35227 1 0
0.376913 1 0
0.402945 1 0
0.436713 1 0
0.477226 1 0
0.523293 1 0
0.5738 1 0
0.627817 1 0
0.684672 1 0
0.743725 1 0
0.804578 1 0
0.866865 1 0
0.930343 1 0
0.994766 1 0
1 1 0
1 1 0
1 1 0
0 0 0.215946
0.0303349 0 0.216617
0.116991 0 0.216861
0.198764 0 0.217914
0.275654 0 0.219181
0.350347 0 0.220676
0.42385 0 0.222431
0.496651 0 0.22446
0.568978 0 0.226749
0.641016 0 0.229313
0.71281 0 0.232136
0.784451 0 0.235233
0.855985 0 0.238605
0.927443 0 0.242237
0.998825 0 0.246128
1 0 0.250263
1 0 0.254658
0 0.0488746 0.209247
0.0389715 0.0480354 0.209979
0.123217 0.0470893 0.210742
0.202472 0.0457313 0.211734
0.27805 0.0439307 0.212985
0.351934 0.0416724 0.214481
0.424903 0.0389563 0.216266
0.497276 0.0357366 0.218326
0.569314 0.0320134 0.220676
0.641093 0.0277714 0.223285
0.712703 0.0230106 0.226184
0.784192 0.0177157 0.229358
0.855604 0.0118715 0.232807
0.92694 0.00546273 0.236515
0.998215 0 0.240482
1 0 0.244724
